X: 34
T:Off to California
M:C|
L:1/8
S:The Boys of the Lough: "Regrouped"
R:hornpipe
K:A
E>F|A>cB>c A>FF>E|A>ce>a f2 (3efg|a>ga>e f>ec>A|B>cB>A F2 E>F|
A>cB>c A>FF>E|A>ce>a f2 (3efg|a>ga>e f>ec>A|(3Bcd c>B A2 :|
|:f>g|a>gf>a g>fe>g|f>ef>g f>ec>e|a>ga>e f>ec>A|B>cB>A F2 E>F|
A>cB>c A>FF>E|A>ce>a f2 (3efg|a>ga>e f>ec>A|B>dc>B A2 :|
